Papirus/16x16/actions/im-user-online.svg

<?xml version="1.0" encoding="UTF-8" standalone="no"?>
<svg xmlns="http://www.w3.org/2000/svg" viewBox="0 0 16 16">
  <defs>
    <style type="text/css" id="current-color-scheme">
      .ColorScheme-Text {
        color:#5c616c;
      }
      </style>
  </defs>
  <path 
     style="fill:currentColor;opacity:1"
     class="ColorScheme-Text"
     d="M 8 0 C 5.7909 -5.5e-06 4 1.7909 4 4 C 4.0000166 6.2091 5.7909 8 8 8 C 10.2091 8.000006 12 6.2091 12 4 C 12 1.7909 10.209 0 8 0 z M 8 8.9863281 C 3.972 8.9911281 0.5035 12.004 0 16 L 9.7128906 16 C 8.6785906 15.173 8 13.918 8 12.5 C 8 11.097 8.6653406 9.8407719 9.6816406 9.0136719 C 8.9431406 8.9991719 8.1873 8.9877281 8 8.9863281 z M 12.5 9 A 3.5 3.5 0 0 0 9 12.5 A 3.5 3.5 0 0 0 12.5 16 A 3.5 3.5 0 0 0 16 12.5 A 3.5 3.5 0 0 0 12.5 9 z M 14.242188 10.464844 L 14.949219 11.171875 L 12.121094 14 L 11.414062 13.292969 L 10 11.878906 L 10.707031 11.171875 L 12.121094 12.585938 L 14.242188 10.464844 z "
      />
</svg>

<?xml version="1.0" encoding="UTF-8" standalone="no"?>
<svg id="svg2" xmlns:rdf="http://www.w3.org/1999/02/22-rdf-syntax-ns#" xmlns="http://www.w3.org/2000/svg" height="16" viewBox="0 0 16 16" width="16" version="1.1" xmlns:cc="http://creativecommons.org/ns#" xmlns:dc="http://purl.org/dc/elements/1.1/">
 <metadata id="metadata20">
  <rdf:RDF>
   <cc:Work rdf:about="">
    <dc:format>image/svg+xml</dc:format>
    <dc:type rdf:resource="http://purl.org/dc/dcmitype/StillImage"/>
    <dc:title/>
   </cc:Work>
  </rdf:RDF>
 </metadata>
 <path id="path4150" opacity="1" fill="#5c616c" d="m8 0c-2.2091-0.0000055-4 1.7909-4 4 0.0000166 2.2091 1.7909 4 4 4 2.2091 0.000006 4-1.7909 4-4s-1.791-4-4-4zm0 8.9873c-4.028 0.0048-7.4965 3.0167-8 7.0127h9.7129c-1.0343-0.827-1.7129-2.082-1.7129-3.5 0-1.403 0.6653-2.6602 1.6816-3.4873-0.7385-0.0145-1.4943-0.024-1.6816-0.0254z"/>
 <path id="path4213" opacity="1" fill="#5c616c" d="m12.5 9a3.5 3.5 0 0 0 -3.5 3.5 3.5 3.5 0 0 0 3.5 3.5 3.5 3.5 0 0 0 3.5 -3.5 3.5 3.5 0 0 0 -3.5 -3.5zm1.7422 1.4648 0.70703 0.70703l-2.828 2.828-0.707-0.707-1.414-1.414 0.70703-0.70703 1.4141 1.4141 2.1211-2.1211z"/>
</svg>
